file/guinness.svg

<svg clip-rule="evenodd" fill-rule="evenodd" stroke-linejoin="round" stroke-miterlimit="1.41421" viewBox="0 0 560 400" xmlns="http://www.w3.org/2000/svg"><g fill-rule="nonzero" transform="matrix(.105857 0 0 -.105857 122.831 300.315)"><path d="m5.245 2.975h2958.97v1889.35h-2958.97z"/><path d="m1616.54 983.325c.58 2.891.58 5.782.58 8.096v30.179c0 2.89-1.2 5.71-3.9 7.47l13.07 4.51v-42.159c0-2.314 0-5.205.58-8.096z" fill="#fff"/><path d="m1653.79 983.325 20.76 43.295h-14.99c-2.29 0-3.9-.23-5.2-.74v6.55h32.15l-22.5-49.105z" fill="#fff"/><path d="m1716.8 982.171c-3.62 0-7.44.52-10.77 2.062l.18 4.148c2.96-1.102 6.44-1.937 10.45-1.44 5.78.703 10.35 5.417 10.35 11.679 0 7.02-4.45 10.85-11.32 10.85-2.89 0-5.62-.5-8.17-1.52l1.73 24.48h25.26v-6.47c-1.27.34-2.9.68-5.23.68h-12.21l-.71-12.45c1.91.28 3.59.49 6.02.36 8.77-.47 14.23-6.44 14.23-14.776 0-9.816-7.52-17.603-19.81-17.603" fill="#fff"/><path d="m1794.04 1013.22c-.51 13.13-7.26 21.1-19.57 20.01-9.29-.81-15.43-8.8-14.63-18.31.75-8.88 6.81-13.82 16.63-12.82 3.68.38 7.11 2.35 8.29 4.33-.24-12.752-7.6-20.471-20.69-19.986l-.06-3.993c16.63-2.132 30.86 7.833 30.03 30.769zm-17.85-6.37c-5.19 0-6.91 4.61-6.89 10.96.01 3.46.62 11.54 6.97 11.54 5.78 0 6.9-7.5 6.89-10.97 0-2.88-.03-11.53-6.97-11.53" fill="#fff"/><path d="m1494.1 955.58h-99.42l-117.83 399.13c-1.16 4.03-3.46 11.55-3.46 15.01 0 4.62 3.46 7.51 8.08 7.51 3.46 0 6.36-1.74 7.51-5.19l126.5-386.424c135.23 109.164 207.43 244.324 194.73 411.254 18.47 4.04 42.16 12.72 56 20.8 31.78-177.91-27.7-340.79-172.11-462.09" fill="#b09247"/><path d="m1142.28 983.302c.57 2.891.57 5.782.57 8.085v34.083c0 2.89 0 4.05-.57 6.92h27.14v-6.36c-1.5.34-3.68.59-5.99.59h-10.76v-15.02h8.08c1.16 0 3.27.06 5.2.44v-6.63c-1.84.39-4.04.43-5.2.43h-8.08v-16.756h12.71c2.31 0 3.57.377 5.2.806v-6.588z" fill="#fff"/><path d="m1202.34 982.148c-5.24 0-10.01 1.668-12.71 3.845v4.834c3.6-2.423 7.49-3.988 12.73-3.646 4.45.292 8.18 2.966 8.41 7.348.22 4.405-2.54 6.681-8.43 9.571-9.21 4.23-12.82 7.64-12.71 15.02.12 7.78 6.1 14.22 15.6 14.44 4.26.1 8.45-.74 11.36-2.43l-.04-5.19c-2.46 1.62-5.68 2.89-9.6 2.89-5.1 0-8.75-2.63-9.13-6.5-.19-1.85.43-3.75 2.04-5.36 1.4-1.39 3.63-2.49 7.1-4.21 9.1-3.95 12.71-8.08 12.71-15.591 0-7.496-5.2-15.021-17.33-15.021" fill="#fff"/><path d="m1265.88 1026.04h-8.09v-34.653c0-2.303.02-5.194.58-8.085h-10.97c.57 2.891.57 5.782.57 8.085v34.673l-8.08-.02c-1.73 0-3.47 0-5.2-.57v6.92h36.38v-6.92c-1.73.57-3.46.57-5.19.57" fill="#fff"/><path d="m1306.89 983.302h-5.78c-1.15 0-2.54 0-3.46-.394v6.005c.92-.315 2.31-.4 3.46-.4h5.78c1.16 0 2.34.154 3.46.4l.02-6.051c-.88.383-2.32.44-3.48.44" fill="#fff"/><path d="m1305.16 998.323h-14.45c.58 1.154.58 2.307.58 2.887v28.31c0 .57 0 1.73-.57 2.87h12.7c11.55 0 18.48-4.03 18.48-16.16 0-10.39-6.92-17.907-16.74-17.907zm-1.16 29.657h-4.62v-25.12l3.47.01c6.35 0 10.39 3.68 10.39 13.46 0 7.97-4.04 11.65-9.24 11.65" fill="#fff"/><g fill="#b09247"><path d="m1698.57 1407.27v-23.1h-5.19v23.1h-6.94v4.62h19.05v-4.62z"/><path d="m1729.19 1384.17v21.94h-.58l-5.77-21.94h-3.47l-5.79 21.94v-21.94h-4.61v27.72h6.93l5.2-19.63 5.2 19.63h6.93v-27.72z"/><path d="m1666.81 1533.18c-53.15-41.58-135.73-58.33-235.17-20.79-38.69 14.45-72.77 20.79-101.08 20.79-74.51 0-112.63-42.16-112.63-86.64 0-36.38 24.84-61.22 57.19-61.22 7.51 0 15.02 1.73 21.37 4.62l133.44-367.35c10.38 6.93 55.5 51.98 69.38 72.19-7.52 1.16-14.46 6.94-18.51 16.17 0 0-141.56 310.78-149.68 329.52-8.76 20.24-16.04 34.43-27.68 40.69 13.94 4.93 36.92 4.03 56.2-3.78 18.39-7.44 49.16-27.19 87.77-44.28 40.95-18.08 70.27-26.24 102.75-27.87 54.72-2.73 115.16 20.32 146.69 49.98zm-393.42-115.51c-11.56 0-21.38 9.82-21.38 21.36 0 11.56 9.82 21.37 21.38 21.37 11.54.01 21.36-9.81 21.36-21.37 0-11.54-9.82-21.36-21.36-21.36"/><path d="m1494.1 955.58h-99.42l-117.83 399.13c-1.16 4.03-3.46 11.55-3.46 15.01 0 4.62 3.46 7.51 8.08 7.51 3.46 0 6.36-1.74 7.51-5.19l126.5-386.424c135.23 109.164 207.43 244.324 194.73 411.254 18.47 4.04 42.16 12.72 56 20.8 31.78-177.91-27.7-340.79-172.11-462.09"/><path d="m1519.55 1277.36c34.61 77.45 69.48 127.87 71.23 130.2-.6-2.85-15.58-62.3-51.05-139.34-34.62-77.45-69.53-127.87-71.28-130.21.59 2.86 15.61 62.31 51.1 139.35"/><path d="m1488.65 1298.89c28.34 63.49 57.54 104.58 59 106.47-.45-2.35-12.15-51.37-41.26-114.51-28.35-63.49-57.6-104.58-59.07-106.48.46 2.35 12.18 51.39 41.33 114.52"/><path d="m1461.86 1322.43c23.6 52.71 47.95 86.72 49.18 88.29-.36-1.96-9.89-42.68-34.11-95.11-23.57-52.73-47.92-86.72-49.16-88.28.38 1.95 9.91 42.66 34.09 95.1"/><path d="m1438.23 1346.42c19.67 44.07 40.13 72.49 41.16 73.8-.31-1.65-8.25-35.73-28.49-79.55-19.66-44.06-40.09-72.48-41.12-73.79.3 1.64 8.24 35.72 28.45 79.54"/><path d="m1416.6 1370.1c16.38 36.73 33.55 60.34 34.4 61.43-.24-1.37-6.71-29.83-23.56-66.36-16.38-36.73-33.55-60.34-34.41-61.43.24 1.36 6.72 29.83 23.57 66.36"/><path d="m1396.95 1392.64c13.49 30.26 27.58 49.74 28.29 50.65-.2-1.13-5.59-24.57-19.48-54.64-13.49-30.27-27.57-49.76-28.3-50.66.22 1.13 5.6 24.57 19.49 54.65"/><path d="m1378.56 1414.63c10.98 24.62 22.62 40.4 23.2 41.12-.15-.92-4.37-20.08-15.66-44.54-10.98-24.61-22.62-40.4-23.2-41.12.16.92 4.37 20.08 15.66 44.54"/><path d="m1379.64 1467.65c-.11-.73-3.23-15.84-12.1-35.04-8.61-19.33-17.93-31.62-18.4-32.18.11.72 3.23 15.84 12.11 35.03 8.59 19.33 17.92 31.62 18.39 32.19"/></g><path d="m2465.14 852.427c-11.16 0-20.21-9.062-20.21-20.067 0-11.25 9.05-20.231 20.21-20.231 11.12 0 20.11 8.981 20.11 20.231 0 11.005-8.99 20.067-20.11 20.067zm0-36.373c-9.13 0-16.38 7.176-16.38 16.306 0 8.937 7.25 16.124 16.38 16.124 8.99 0 16.27-7.187 16.27-16.124 0-9.13-7.28-16.306-16.27-16.306" fill="#fff"/><path d="m2474.43 837.268c0 1.72-.75 3.549-2.27 4.434-1.55.834-3.27.96-4.96.96h-8.86v-20.357h2.99v9.341h3.57l5.82-9.341h3.44l-6.14 9.341c3.59.12 6.41 1.629 6.41 5.622zm-9.79-3.056h-3.31v6.125h5.28c2.52 0 4.77-.355 4.77-3 0-3.651-3.89-3.125-6.74-3.125" fill="#fff"/><path d="m2331.42 500.325c-46.36 0-73.33 14.552-87.9 14.552v75.502h7.56c6.47-32.896 40.44-55.55 76.57-55.55 30.76 0 55.03 16.182 55.03 48.556 0 22.095-10.79 41.521-38.84 60.93l-39.37 26.968c-33.98 23.192-62.56 49.617-62.56 97.08 0 56.096 37.75 92.228 100.31 92.228 37.23 0 52.85-8.644 74.43-10.798v-65.249h-7.56c-4.87 24.796-30.73 44.76-65.25 44.76-32.37 0-46.92-17.804-46.92-41.527 0-20.5 12.4-36.669 42.6-57.17l33.98-22.654c52.32-35.059 68.49-60.393 68.49-104.079 0-64.179-44.77-103.549-110.57-103.549zm-221.64 0c-46.39 0-73.36 14.552-87.91 14.552v75.502h7.55c6.47-32.896 40.45-55.55 76.56-55.55 30.77 0 55.03 16.182 55.03 48.556 0 22.095-10.79 41.521-38.83 60.93l-39.37 26.968c-33.99 23.192-62.57 49.617-62.57 97.08 0 56.096 37.76 92.228 100.33 92.228 37.21 0 52.84-8.644 74.42-10.798v-65.249h-7.56c-4.85 24.796-30.74 44.76-65.25 44.76-32.37 0-46.92-17.804-46.92-41.527 0-20.5 12.39-36.669 42.59-57.17l34-22.654c52.3-35.059 68.48-60.393 68.48-104.079 0-64.179-44.76-103.549-110.55-103.549zm-302.03 5.389v7.009c2.7 2.7 3.24 16.727 3.24 24.26v275.066c0 22.643-7.55 34.504-15.64 36.121v7.011h189.3v-47.452h-7.01c-1.62 8.079-17.79 13.484-28.04 13.484h-71.73v-119.716h60.39c8.1 0 26.98 2.154 29.13 7.53h7.02v-45.297h-7.02c-2.71 2.702-17.79 3.771-26.97 3.771h-62.55v-127.806h71.18c19.43 0 31.29 7.555 33.46 16.181h6.99v-50.162zm-99.23 0-178.49 315.499c-5.96 10.799-17.28 25.34-27.51 26.957v7.011h86.27l124.57-223.264v180.132c0 22.643-5.92 34.504-13.48 36.121v7.011h51.25v-349.467zm-185.51 0v7.009c2.69 2.7 3.22 23.189 3.22 26.972v241.078l37.76-69.58v-169.891c0-13.481 2.7-26.95 5.38-28.579v-7.009zm-98.23 0-178.52 315.499c-5.93 10.799-17.26 25.34-27.5 26.957v7.011h86.29l124.59-223.264v180.132c0 22.643-5.94 34.504-13.5 36.121v7.011h51.27v-349.467zm-185.53 0v7.009c2.69 2.7 3.23 23.189 3.23 26.972v241.078l37.75-69.58v-169.891c0-13.481 2.7-26.95 5.41-28.579v-7.009zm-125.66 0v7.009c2.15 1.629 3.78 16.727 3.78 25.89v273.436c0 22.643-7.56 34.504-15.65 36.121v7.011h81.97v-310.643c0-19.953 3.77-31.269 5.94-31.815v-7.009zm-60.41 60.406c-12.94-43.689-48-65.795-104.622-65.795-81.979 0-116.5 45.842-116.5 115.953v195.771c0 22.643-7.548 34.504-15.633 36.121v7.011h83.059v-240.531c0-23.174 2.691-35.584 7.542-45.294 10.787-21.035 30.207-27.507 51.239-27.507 22.112 0 43.145 6.472 53.925 27.507 4.86 9.71 7.56 22.12 7.56 48.008v194.685c0 22.643-7.56 34.504-15.65 36.121v7.011h55.56v-232.972c0-27.499-2.16-42.606-6.48-56.089zm-275.047 110.557v-160.171c-3.777-1.629-51.24-17.264-113.803-17.264-97.607 0-180.124 70.639-180.124 218.413 0 127.83 72.268 212.505 176.89 212.505 51.239 0 75.505-12.959 90.612-12.959 2.148 0 3.233.56 3.776 1.086h5.382v-86.829h-8.621c-10.245 44.223-44.229 63.638-81.979 63.638-61.478 0-111.638-51.228-111.638-174.733 0-132.138 55.554-184.451 113.798-184.451 16.724 0 28.579 2.153 36.138 5.39v126.199c0 18.335-4.862 41.526-24.814 45.846v7.553h98.16v-7.011c-2.703-1.617-3.777-26.425-3.777-37.212" fill="#fff"/></g></svg>

<?xml version="1.0" encoding="UTF-8" standalone="no"?>
<!DOCTYPE svg PUBLIC "-//W3C//DTD SVG 1.1//EN" "http://www.w3.org/Graphics/SVG/1.1/DTD/svg11.dtd">
<svg width="100%" height="100%" viewBox="0 0 560 400" version="1.1" xmlns="http://www.w3.org/2000/svg" xmlns:xlink="http://www.w3.org/1999/xlink" xml:space="preserve" xmlns:serif="http://www.serif.com/" style="fill-rule:evenodd;clip-rule:evenodd;stroke-linejoin:round;stroke-miterlimit:1.41421;">
    <g transform="matrix(0.105857,1.49963e-33,-1.49963e-33,-0.105857,122.831,300.315)">
        <rect id="path14" x="5.245" y="2.975" width="2958.97" height="1889.35" style="fill-rule:nonzero;"/>
        <path id="path16" d="M1616.54,983.325C1617.12,986.216 1617.12,989.107 1617.12,991.421L1617.12,1021.6C1617.12,1024.49 1615.92,1027.31 1613.22,1029.07L1626.29,1033.58L1626.29,991.421C1626.29,989.107 1626.29,986.216 1626.87,983.325L1616.54,983.325" style="fill:white;fill-rule:nonzero;"/>
        <path id="path18" d="M1653.79,983.325L1674.55,1026.62L1659.56,1026.62C1657.27,1026.62 1655.66,1026.39 1654.36,1025.88L1654.36,1032.43L1686.51,1032.43L1664.01,983.325L1653.79,983.325" style="fill:white;fill-rule:nonzero;"/>
        <path id="path20" d="M1716.8,982.171C1713.18,982.171 1709.36,982.691 1706.03,984.233L1706.21,988.381C1709.17,987.279 1712.65,986.444 1716.66,986.941C1722.44,987.644 1727.01,992.358 1727.01,998.62C1727.01,1005.64 1722.56,1009.47 1715.69,1009.47C1712.8,1009.47 1710.07,1008.97 1707.52,1007.95L1709.25,1032.43L1734.51,1032.43L1734.51,1025.96C1733.24,1026.3 1731.61,1026.64 1729.28,1026.64L1717.07,1026.64L1716.36,1014.19C1718.27,1014.47 1719.95,1014.68 1722.38,1014.55C1731.15,1014.08 1736.61,1008.11 1736.61,999.774C1736.61,989.958 1729.09,982.171 1716.8,982.171" style="fill:white;fill-rule:nonzero;"/>
        <path id="path22" d="M1794.04,1013.22C1793.53,1026.35 1786.78,1034.32 1774.47,1033.23C1765.18,1032.42 1759.04,1024.43 1759.84,1014.92C1760.59,1006.04 1766.65,1001.1 1776.47,1002.1C1780.15,1002.48 1783.58,1004.45 1784.76,1006.43C1784.52,993.678 1777.16,985.959 1764.07,986.444L1764.01,982.451C1780.64,980.319 1794.87,990.284 1794.04,1013.22ZM1776.19,1006.85C1771,1006.85 1769.28,1011.46 1769.3,1017.81C1769.31,1021.27 1769.92,1029.35 1776.27,1029.35C1782.05,1029.35 1783.17,1021.85 1783.16,1018.38C1783.16,1015.5 1783.13,1006.85 1776.19,1006.85" style="fill:white;fill-rule:nonzero;"/>
        <path id="path24" d="M1494.1,955.58L1394.68,955.58L1276.85,1354.71C1275.69,1358.74 1273.39,1366.26 1273.39,1369.72C1273.39,1374.34 1276.85,1377.23 1281.47,1377.23C1284.93,1377.23 1287.83,1375.49 1288.98,1372.04L1415.48,985.616C1550.71,1094.78 1622.91,1229.94 1610.21,1396.87C1628.68,1400.91 1652.37,1409.59 1666.21,1417.67C1697.99,1239.76 1638.51,1076.88 1494.1,955.58" style="fill:rgb(176,146,71);fill-rule:nonzero;"/>
        <path id="path26" d="M1142.28,983.302C1142.85,986.193 1142.85,989.084 1142.85,991.387L1142.85,1025.47C1142.85,1028.36 1142.85,1029.52 1142.28,1032.39L1169.42,1032.39L1169.42,1026.03C1167.92,1026.37 1165.74,1026.62 1163.43,1026.62L1152.67,1026.62L1152.67,1011.6L1160.75,1011.6C1161.91,1011.6 1164.02,1011.66 1165.95,1012.04L1165.95,1005.41C1164.11,1005.8 1161.91,1005.84 1160.75,1005.84L1152.67,1005.84L1152.67,989.084L1165.38,989.084C1167.69,989.084 1168.95,989.461 1170.58,989.89L1170.58,983.302L1142.28,983.302" style="fill:white;fill-rule:nonzero;"/>
        <path id="path28" d="M1202.34,982.148C1197.1,982.148 1192.33,983.816 1189.63,985.993L1189.63,990.827C1193.23,988.404 1197.12,986.839 1202.36,987.181C1206.81,987.473 1210.54,990.147 1210.77,994.529C1210.99,998.934 1208.23,1001.21 1202.34,1004.1C1193.13,1008.33 1189.52,1011.74 1189.63,1019.12C1189.75,1026.9 1195.73,1033.34 1205.23,1033.56C1209.49,1033.66 1213.68,1032.82 1216.59,1031.13L1216.55,1025.94C1214.09,1027.56 1210.87,1028.83 1206.95,1028.83C1201.85,1028.83 1198.2,1026.2 1197.82,1022.33C1197.63,1020.48 1198.25,1018.58 1199.86,1016.97C1201.26,1015.58 1203.49,1014.48 1206.96,1012.76C1216.06,1008.81 1219.67,1004.68 1219.67,997.169C1219.67,989.673 1214.47,982.148 1202.34,982.148" style="fill:white;fill-rule:nonzero;"/>
        <path id="path30" d="M1265.88,1026.04L1257.79,1026.04L1257.79,991.387C1257.79,989.084 1257.81,986.193 1258.37,983.302L1247.4,983.302C1247.97,986.193 1247.97,989.084 1247.97,991.387L1247.97,1026.06L1239.89,1026.04C1238.16,1026.04 1236.42,1026.04 1234.69,1025.47L1234.69,1032.39L1271.07,1032.39L1271.07,1025.47C1269.34,1026.04 1267.61,1026.04 1265.88,1026.04" style="fill:white;fill-rule:nonzero;"/>
        <path id="path32" d="M1306.89,983.302L1301.11,983.302C1299.96,983.302 1298.57,983.302 1297.65,982.908L1297.65,988.913C1298.57,988.598 1299.96,988.513 1301.11,988.513L1306.89,988.513C1308.05,988.513 1309.23,988.667 1310.35,988.913L1310.37,982.862C1309.49,983.245 1308.05,983.302 1306.89,983.302" style="fill:white;fill-rule:nonzero;"/>
        <path id="path34" d="M1305.16,998.323L1290.71,998.323C1291.29,999.477 1291.29,1000.63 1291.29,1001.21L1291.29,1029.52C1291.29,1030.09 1291.29,1031.25 1290.72,1032.39L1303.42,1032.39C1314.97,1032.39 1321.9,1028.36 1321.9,1016.23C1321.9,1005.84 1314.98,998.323 1305.16,998.323ZM1304,1027.98L1299.38,1027.98L1299.38,1002.86L1302.85,1002.87C1309.2,1002.87 1313.24,1006.55 1313.24,1016.33C1313.24,1024.3 1309.2,1027.98 1304,1027.98" style="fill:white;fill-rule:nonzero;"/>
        <path id="path36" d="M1698.57,1407.27L1698.57,1384.17L1693.38,1384.17L1693.38,1407.27L1686.44,1407.27L1686.44,1411.89L1705.49,1411.89L1705.49,1407.27L1698.57,1407.27" style="fill:rgb(176,146,71);fill-rule:nonzero;"/>
        <path id="path38" d="M1729.19,1384.17L1729.19,1406.11L1728.61,1406.11L1722.84,1384.17L1719.37,1384.17L1713.58,1406.11L1713.58,1384.17L1708.97,1384.17L1708.97,1411.89L1715.9,1411.89L1721.1,1392.26L1726.3,1411.89L1733.23,1411.89L1733.23,1384.17L1729.19,1384.17" style="fill:rgb(176,146,71);fill-rule:nonzero;"/>
        <path id="path40" d="M1666.81,1533.18C1613.66,1491.6 1531.08,1474.85 1431.64,1512.39C1392.95,1526.84 1358.87,1533.18 1330.56,1533.18C1256.05,1533.18 1217.93,1491.02 1217.93,1446.54C1217.93,1410.16 1242.77,1385.32 1275.12,1385.32C1282.63,1385.32 1290.14,1387.05 1296.49,1389.94L1429.93,1022.59C1440.31,1029.52 1485.43,1074.57 1499.31,1094.78C1491.79,1095.94 1484.85,1101.72 1480.8,1110.95C1480.8,1110.95 1339.24,1421.73 1331.12,1440.47C1322.36,1460.71 1315.08,1474.9 1303.44,1481.16C1317.38,1486.09 1340.36,1485.19 1359.64,1477.38C1378.03,1469.94 1408.8,1450.19 1447.41,1433.1C1488.36,1415.02 1517.68,1406.86 1550.16,1405.23C1604.88,1402.5 1665.32,1425.55 1696.85,1455.21L1666.81,1533.18ZM1273.39,1417.67C1261.83,1417.67 1252.01,1427.49 1252.01,1439.03C1252.01,1450.59 1261.83,1460.4 1273.39,1460.4C1284.93,1460.41 1294.75,1450.59 1294.75,1439.03C1294.75,1427.49 1284.93,1417.67 1273.39,1417.67" style="fill:rgb(176,146,71);fill-rule:nonzero;"/>
        <path id="path42" d="M1494.1,955.58L1394.68,955.58L1276.85,1354.71C1275.69,1358.74 1273.39,1366.26 1273.39,1369.72C1273.39,1374.34 1276.85,1377.23 1281.47,1377.23C1284.93,1377.23 1287.83,1375.49 1288.98,1372.04L1415.48,985.616C1550.71,1094.78 1622.91,1229.94 1610.21,1396.87C1628.68,1400.91 1652.37,1409.59 1666.21,1417.67C1697.99,1239.76 1638.51,1076.88 1494.1,955.58" style="fill:rgb(176,146,71);fill-rule:nonzero;"/>
        <path id="path44" d="M1519.55,1277.36C1554.16,1354.81 1589.03,1405.23 1590.78,1407.56C1590.18,1404.71 1575.2,1345.26 1539.73,1268.22C1505.11,1190.77 1470.2,1140.35 1468.45,1138.01C1469.04,1140.87 1484.06,1200.32 1519.55,1277.36" style="fill:rgb(176,146,71);fill-rule:nonzero;"/>
        <path id="path46" d="M1488.65,1298.89C1516.99,1362.38 1546.19,1403.47 1547.65,1405.36C1547.2,1403.01 1535.5,1353.99 1506.39,1290.85C1478.04,1227.36 1448.79,1186.27 1447.32,1184.37C1447.78,1186.72 1459.5,1235.76 1488.65,1298.89" style="fill:rgb(176,146,71);fill-rule:nonzero;"/>
        <path id="path48" d="M1461.86,1322.43C1485.46,1375.14 1509.81,1409.15 1511.04,1410.72C1510.68,1408.76 1501.15,1368.04 1476.93,1315.61C1453.36,1262.88 1429.01,1228.89 1427.77,1227.33C1428.15,1229.28 1437.68,1269.99 1461.86,1322.43" style="fill:rgb(176,146,71);fill-rule:nonzero;"/>
        <path id="path50" d="M1438.23,1346.42C1457.9,1390.49 1478.36,1418.91 1479.39,1420.22C1479.08,1418.57 1471.14,1384.49 1450.9,1340.67C1431.24,1296.61 1410.81,1268.19 1409.78,1266.88C1410.08,1268.52 1418.02,1302.6 1438.23,1346.42" style="fill:rgb(176,146,71);fill-rule:nonzero;"/>
        <path id="path52" d="M1416.6,1370.1C1432.98,1406.83 1450.15,1430.44 1451,1431.53C1450.76,1430.16 1444.29,1401.7 1427.44,1365.17C1411.06,1328.44 1393.89,1304.83 1393.03,1303.74C1393.27,1305.1 1399.75,1333.57 1416.6,1370.1" style="fill:rgb(176,146,71);fill-rule:nonzero;"/>
        <path id="path54" d="M1396.95,1392.64C1410.44,1422.9 1424.53,1442.38 1425.24,1443.29C1425.04,1442.16 1419.65,1418.72 1405.76,1388.65C1392.27,1358.38 1378.19,1338.89 1377.46,1337.99C1377.68,1339.12 1383.06,1362.56 1396.95,1392.64" style="fill:rgb(176,146,71);fill-rule:nonzero;"/>
        <path id="path56" d="M1378.56,1414.63C1389.54,1439.25 1401.18,1455.03 1401.76,1455.75C1401.61,1454.83 1397.39,1435.67 1386.1,1411.21C1375.12,1386.6 1363.48,1370.81 1362.9,1370.09C1363.06,1371.01 1367.27,1390.17 1378.56,1414.63" style="fill:rgb(176,146,71);fill-rule:nonzero;"/>
        <path id="path58" d="M1379.64,1467.65C1379.53,1466.92 1376.41,1451.81 1367.54,1432.61C1358.93,1413.28 1349.61,1400.99 1349.14,1400.43C1349.25,1401.15 1352.37,1416.27 1361.25,1435.46C1369.84,1454.79 1379.17,1467.08 1379.64,1467.65" style="fill:rgb(176,146,71);fill-rule:nonzero;"/>
        <path id="path60" d="M2465.14,852.427C2453.98,852.427 2444.93,843.365 2444.93,832.36C2444.93,821.11 2453.98,812.129 2465.14,812.129C2476.26,812.129 2485.25,821.11 2485.25,832.36C2485.25,843.365 2476.26,852.427 2465.14,852.427ZM2465.14,816.054C2456.01,816.054 2448.76,823.23 2448.76,832.36C2448.76,841.297 2456.01,848.484 2465.14,848.484C2474.13,848.484 2481.41,841.297 2481.41,832.36C2481.41,823.23 2474.13,816.054 2465.14,816.054" style="fill:white;fill-rule:nonzero;"/>
        <path id="path62" d="M2474.43,837.268C2474.43,838.988 2473.68,840.817 2472.16,841.702C2470.61,842.536 2468.89,842.662 2467.2,842.662L2458.34,842.662L2458.34,822.305L2461.33,822.305L2461.33,831.646L2464.9,831.646L2470.72,822.305L2474.16,822.305L2468.02,831.646C2471.61,831.766 2474.43,833.275 2474.43,837.268ZM2464.64,834.212L2461.33,834.212L2461.33,840.337L2466.61,840.337C2469.13,840.337 2471.38,839.982 2471.38,837.337C2471.38,833.686 2467.49,834.212 2464.64,834.212" style="fill:white;fill-rule:nonzero;"/>
        <path id="path64" d="M2331.42,500.325C2285.06,500.325 2258.09,514.877 2243.52,514.877L2243.52,590.379L2251.08,590.379C2257.55,557.483 2291.52,534.829 2327.65,534.829C2358.41,534.829 2382.68,551.011 2382.68,583.385C2382.68,605.48 2371.89,624.906 2343.84,644.315L2304.47,671.283C2270.49,694.475 2241.91,720.9 2241.91,768.363C2241.91,824.459 2279.66,860.591 2342.22,860.591C2379.45,860.591 2395.07,851.947 2416.65,849.793L2416.65,784.544L2409.09,784.544C2404.22,809.34 2378.36,829.304 2343.84,829.304C2311.47,829.304 2296.92,811.5 2296.92,787.777C2296.92,767.277 2309.32,751.108 2339.52,730.607L2373.5,707.953C2425.82,672.894 2441.99,647.56 2441.99,603.874C2441.99,539.695 2397.22,500.325 2331.42,500.325ZM2109.78,500.325C2063.39,500.325 2036.42,514.877 2021.87,514.877L2021.87,590.379L2029.42,590.379C2035.89,557.483 2069.87,534.829 2105.98,534.829C2136.75,534.829 2161.01,551.011 2161.01,583.385C2161.01,605.48 2150.22,624.906 2122.18,644.315L2082.81,671.283C2048.82,694.475 2020.24,720.9 2020.24,768.363C2020.24,824.459 2058,860.591 2120.57,860.591C2157.78,860.591 2173.41,851.947 2194.99,849.793L2194.99,784.544L2187.43,784.544C2182.58,809.34 2156.69,829.304 2122.18,829.304C2089.81,829.304 2075.26,811.5 2075.26,787.777C2075.26,767.277 2087.65,751.108 2117.85,730.607L2151.85,707.953C2204.15,672.894 2220.33,647.56 2220.33,603.874C2220.33,539.695 2175.57,500.325 2109.78,500.325ZM1807.75,505.714L1807.75,512.723C1810.45,515.423 1810.99,529.45 1810.99,536.983L1810.99,812.049C1810.99,834.692 1803.44,846.553 1795.35,848.17L1795.35,855.181L1984.65,855.181L1984.65,807.729L1977.64,807.729C1976.02,815.808 1959.85,821.213 1949.6,821.213L1877.87,821.213L1877.87,701.497L1938.26,701.497C1946.36,701.497 1965.24,703.651 1967.39,709.027L1974.41,709.027L1974.41,663.73L1967.39,663.73C1964.68,666.432 1949.6,667.501 1940.42,667.501L1877.87,667.501L1877.87,539.695L1949.05,539.695C1968.48,539.695 1980.34,547.25 1982.51,555.876L1989.5,555.876L1989.5,505.714L1807.75,505.714ZM1708.52,505.714L1530.03,821.213C1524.07,832.012 1512.75,846.553 1502.52,848.17L1502.52,855.181L1588.79,855.181L1713.36,631.917L1713.36,812.049C1713.36,834.692 1707.44,846.553 1699.88,848.17L1699.88,855.181L1751.13,855.181L1751.13,505.714L1708.52,505.714ZM1523.01,505.714L1523.01,512.723C1525.7,515.423 1526.23,535.912 1526.23,539.695L1526.23,780.773L1563.99,711.193L1563.99,541.302C1563.99,527.821 1566.69,514.352 1569.37,512.723L1569.37,505.714L1523.01,505.714ZM1424.78,505.714L1246.26,821.213C1240.33,832.012 1229,846.553 1218.76,848.17L1218.76,855.181L1305.05,855.181L1429.64,631.917L1429.64,812.049C1429.64,834.692 1423.7,846.553 1416.14,848.17L1416.14,855.181L1467.41,855.181L1467.41,505.714L1424.78,505.714ZM1239.25,505.714L1239.25,512.723C1241.94,515.423 1242.48,535.912 1242.48,539.695L1242.48,780.773L1280.23,711.193L1280.23,541.302C1280.23,527.821 1282.93,514.352 1285.64,512.723L1285.64,505.714L1239.25,505.714ZM1113.59,505.714L1113.59,512.723C1115.74,514.352 1117.37,529.45 1117.37,538.613L1117.37,812.049C1117.37,834.692 1109.81,846.553 1101.72,848.17L1101.72,855.181L1183.69,855.181L1183.69,544.538C1183.69,524.585 1187.46,513.269 1189.63,512.723L1189.63,505.714L1113.59,505.714ZM1053.18,566.12C1040.24,522.431 1005.18,500.325 948.558,500.325C866.579,500.325 832.058,546.167 832.058,616.278L832.058,812.049C832.058,834.692 824.51,846.553 816.425,848.17L816.425,855.181L899.484,855.181L899.484,614.65C899.484,591.476 902.175,579.066 907.026,569.356C917.813,548.321 937.233,541.849 958.265,541.849C980.377,541.849 1001.41,548.321 1012.19,569.356C1017.05,579.066 1019.75,591.476 1019.75,617.364L1019.75,812.049C1019.75,834.692 1012.19,846.553 1004.1,848.17L1004.1,855.181L1059.66,855.181L1059.66,622.209C1059.66,594.71 1057.5,579.603 1053.18,566.12ZM778.133,676.677L778.133,516.506C774.356,514.877 726.893,499.242 664.33,499.242C566.723,499.242 484.206,569.881 484.206,717.655C484.206,845.485 556.474,930.16 661.096,930.16C712.335,930.16 736.601,917.201 751.708,917.201C753.856,917.201 754.941,917.761 755.484,918.287L760.866,918.287L760.866,831.458L752.245,831.458C742,875.681 708.016,895.096 670.266,895.096C608.788,895.096 558.628,843.868 558.628,720.363C558.628,588.225 614.182,535.912 672.426,535.912C689.15,535.912 701.005,538.065 708.564,541.302L708.564,667.501C708.564,685.836 703.702,709.027 683.75,713.347L683.75,720.9L781.91,720.9L781.91,713.889C779.207,712.272 778.133,687.464 778.133,676.677" style="fill:white;fill-rule:nonzero;"/>
    </g>
</svg>
